docs/img/network-like.svg

<svg width="24" height="23" viewBox="0 0 24 23" fill="none" xmlns="http://www.w3.org/2000/svg">
<path fill-rule="evenodd" clip-rule="evenodd" d="M23.2154 10.4741C23.2154 11.2778 22.9583 11.9739 22.4444 12.5625C22.5849 12.9738 22.6548 13.3288 22.6536 13.6282C22.6818 14.3383 22.4809 14.9784 22.0511 15.5484C22.2098 16.0716 22.2098 16.6183 22.0511 17.188C21.9112 17.7207 21.6587 18.1597 21.2943 18.5054C21.3781 19.552 21.1493 20.3977 20.6075 21.0425C20.0093 21.7525 19.0893 22.117 17.8462 22.1357H17.3417H16.2764H16.0381C15.4215 22.1357 14.7488 22.0631 14.0199 21.9183C13.2916 21.7733 12.7235 21.6377 12.3171 21.5117C11.9106 21.3857 11.3477 21.2009 10.6283 20.9583C9.47892 20.5562 8.74071 20.3508 8.4137 20.3414C8.17074 20.3321 7.96048 20.241 7.78301 20.068C7.60544 19.8951 7.51673 19.6873 7.51673 19.4443L7.51673 10.4599C7.51673 10.2263 7.60083 10.023 7.76907 9.85017C7.93731 9.67722 8.13824 9.58144 8.37168 9.56278C8.59589 9.54408 8.95093 9.26847 9.43689 8.73572C9.92277 8.20306 10.3946 7.63776 10.8526 7.03981C11.4881 6.22693 11.96 5.66624 12.2683 5.35794C12.4365 5.18965 12.5812 4.96554 12.7028 4.68507C12.8242 4.4048 12.9061 4.17824 12.9481 4.00538C12.9904 3.83253 13.0532 3.55005 13.1376 3.1574C13.2028 2.79309 13.2612 2.508 13.3126 2.30245C13.3641 2.0968 13.4552 1.85384 13.5861 1.57347C13.7168 1.29325 13.8759 1.05967 14.0628 0.872823C14.2405 0.695254 14.4505 0.606445 14.6935 0.606445C15.1236 0.606445 15.5088 0.655489 15.8502 0.753625C16.1912 0.851664 16.4714 0.973119 16.6912 1.11794C16.911 1.26286 17.0978 1.45182 17.252 1.6857C17.4059 1.91914 17.5182 2.12955 17.5884 2.3164C17.6583 2.50319 17.7144 2.73683 17.7567 3.01705C17.7984 3.29742 17.8222 3.50773 17.8266 3.64789C17.831 3.78795 17.8337 3.97033 17.8337 4.19449C17.8337 4.54958 17.7895 4.90481 17.7006 5.2597C17.6116 5.61479 17.5233 5.89501 17.4346 6.10081C17.3457 6.30621 17.217 6.56803 17.0488 6.88556C17.0209 6.94152 16.974 7.02567 16.9088 7.13785C16.8437 7.24997 16.7917 7.35287 16.7548 7.4463C16.7175 7.53972 16.68 7.65185 16.6427 7.78263L20.5251 7.78263C21.2539 7.78263 21.8846 8.04891 22.4172 8.58176C22.9487 9.11467 23.2154 9.74531 23.2154 10.4741ZM1.68628 9.57842H5.72288C5.96584 9.57842 6.17601 9.66718 6.35357 9.8448C6.53104 10.0223 6.61985 10.2325 6.61985 10.4755L6.61985 19.4463C6.61985 19.689 6.53109 19.8993 6.35357 20.077C6.17596 20.2543 5.96579 20.3431 5.72288 20.3431H1.68633C1.44337 20.3431 1.23311 20.2543 1.05544 20.077C0.877871 19.8993 0.789063 19.6889 0.789063 19.4463L0.789063 10.4755C0.789063 10.2325 0.877871 10.0223 1.05539 9.8448C1.23291 9.66723 1.44317 9.57842 1.68628 9.57842ZM3.48023 18.5489C3.72319 18.5489 3.9334 18.4625 4.11092 18.2896C4.28869 18.1167 4.3773 17.9042 4.3773 17.6519C4.3773 17.409 4.28849 17.1986 4.11092 17.0212C3.9334 16.8437 3.72319 16.7547 3.48023 16.7547C3.22789 16.7547 3.01532 16.8437 2.84251 17.0212C2.66961 17.1987 2.58325 17.409 2.58325 17.6519C2.58325 17.9042 2.66966 18.1168 2.84251 18.2896C3.01527 18.4625 3.22789 18.5489 3.48023 18.5489Z" fill="#746859"/>
</svg>

<svg width="24" height="23" viewBox="0 0 24 23" fill="none" xmlns="http://www.w3.org/2000/svg"><path fill-rule="evenodd" clip-rule="evenodd" d="M23.215 10.474c0 .804-.257 1.5-.77 2.088.14.412.21.767.209 1.066.028.71-.173 1.35-.603 1.92.159.524.159 1.07 0 1.64-.14.533-.392.972-.757 1.317.084 1.047-.145 1.893-.686 2.538-.599.71-1.519 1.074-2.762 1.093h-1.808c-.617 0-1.29-.073-2.018-.218a17.827 17.827 0 01-1.703-.406 77.2 77.2 0 01-1.689-.554c-1.15-.402-1.887-.607-2.214-.617a.927.927 0 01-.631-.273.84.84 0 01-.266-.624V10.46c0-.234.084-.437.252-.61a.92.92 0 01.603-.287c.224-.019.579-.295 1.065-.827.486-.533.958-1.098 1.416-1.696.635-.813 1.107-1.374 1.415-1.682a2.15 2.15 0 00.435-.673 4.48 4.48 0 00.245-.68c.042-.172.105-.455.19-.848.065-.364.123-.649.175-.855.051-.205.142-.448.273-.729.13-.28.29-.513.477-.7a.862.862 0 01.63-.267c.43 0 .816.05 1.157.148a3.1 3.1 0 01.841.364c.22.145.407.334.561.568.154.233.266.444.336.63.07.187.126.42.169.701.041.28.065.49.07.63.004.141.007.323.007.547 0 .356-.044.71-.133 1.066a5.723 5.723 0 01-.266.84 11.594 11.594 0 01-.526 1.038 2.34 2.34 0 00-.154.308 3.529 3.529 0 00-.112.337h3.882c.729 0 1.36.266 1.892.799.532.533.798 1.163.798 1.892zM1.686 9.578h4.037c.243 0 .453.09.63.267a.862.862 0 01.267.63v8.971a.863.863 0 01-.266.631.863.863 0 01-.631.266H1.686a.863.863 0 01-.63-.266.863.863 0 01-.267-.63v-8.971c0-.244.089-.454.266-.631a.862.862 0 01.631-.267zm1.794 8.97a.873.873 0 00.63-.258.854.854 0 00.267-.638.862.862 0 00-.266-.63.862.862 0 00-.63-.267.855.855 0 00-.638.266.873.873 0 00-.26.63c0 .253.087.466.26.639a.867.867 0 00.637.259z" fill="#746859"/></svg>
